svg/sun_angle_outline.svg

<svg xmlns="http://www.w3.org/2000/svg" viewBox="0 0 24 24"><path d="M13.8 5.2C13 5 12.2 5 11.4 5l3.2-2.7 1.4 4c-.7-.5-1.4-.8-2.2-1.1M7 7.1c.6-.6 1.3-1.1 2-1.4l-4.1-.8.7 4.1c.4-.7.8-1.4 1.4-1.9m-1.8 6.7C5 13 5 12.2 5 11.4l-2.7 3.2 4 1.4c-.5-.6-.9-1.4-1.1-2.2M22 19v2H3l5.4-5.5c-1.9-2-1.9-5.1 0-7.1 1.9-1.9 5.1-1.9 7 0l3-3 1.4 1.4L7.7 19zM9.8 14.1 14 9.8c-1.2-1.1-3-1.1-4.2 0-1.1 1.2-1.1 3.1 0 4.3"/></svg>

<svg xmlns="http://www.w3.org/2000/svg" id="mdi-sun-angle-outline" viewBox="0 0 24 24"><path d="M13.8 5.2C13 5 12.2 5 11.4 5L14.6 2.3L16 6.3C15.3 5.8 14.6 5.5 13.8 5.2M7 7.1C7.6 6.5 8.3 6 9 5.7L4.9 4.9L5.6 9C6 8.3 6.4 7.6 7 7.1M5.2 13.8C5 13 5 12.2 5 11.4L2.3 14.6L6.3 16C5.8 15.4 5.4 14.6 5.2 13.8M22 19V21H3L8.4 15.5C6.5 13.5 6.5 10.4 8.4 8.4C10.3 6.5 13.5 6.5 15.4 8.4L18.4 5.4L19.8 6.8L7.7 19H22M9.8 14.1L14 9.8C12.8 8.7 11 8.7 9.8 9.8C8.7 11 8.7 12.9 9.8 14.1Z" /></svg>
